!!!!SEGMENT: pl-kk--kk-i-636--004_anonim--christus-factus-est.krn
!!!cenid: 18xx:4559
!!!COM: Anonim
!!!COM-rismID: pe30004985
!!!CDT:
!!!CNT:
!!!OTL: Christus factus est
!!!PDT:
!!!AGN: Sacred
!!!YEC: Copyright 2022 Narodowy Instytut Fryderyka Chopina (https://polishscores.org)
!!!YEM: License CC-BY-4.0 (https://creativecommons.org/licenses/by/4.0)
!!!SMS-siglum: PL-Kk
!!!SMS-shelfmark: Kk.I.636
!!!SMS-variant:
!!!SMS-altvar:
!!!SMS-shelfwork: 004 W
!!!NIFC-rismSourceID: 1001216440
!!!NIFC-rismChildID: 1001216937
!!!NIFC-islandoraID: pl-kk:40786
!!!URL-pdf-islandora: https://repozytorium.nifc.pl/islandora/object/pl-kk%3A40786/datastream/PDF/view
!!!URL-scan: https://polish.musicsources.pl/pl/lokalizacje/galeria/rekopisy/7271/1 @EN{Scan on Polish Music Sources Website} @PL{Skany w portalu Dziedzictwo Muzyki Polskiej w otwartym dostępie}
!!!IIIF:
!!!ONB-nifc: UWAGA: S – skan 21-22, A – 43-44, T – 67-68, B – 93-94.
!!!AIN: 1 alto 1 bass 1 soprn 1 tenor
!!!key:
**kern	**text	**dynam	**kern	**text	**dynam	**kern	**text	**dynam	**kern	**text	**dynam
*part4	*part4	*part4	*part3	*part3	*part3	*part2	*part2	*part2	*part1	*part1	*part1
*staff4	*staff4	*	*staff3	*staff3	*	*staff2	*staff2	*	*staff1	*staff1	*
*I"Basso.	*	*	*I"Tenore.	*	*	*I"Alto.	*	*	*I"Soprano.	*	*
*I'B	*	*	*I'T	*	*	*I'A	*	*	*I'S	*	*
*Ibass	*	*	*Itenor	*	*	*Ialto	*	*	*Isoprn	*	*
*ICvox	*	*	*ICvox	*	*	*ICvox	*	*	*ICvox	*	*
*clefF4	*	*	*clefC4	*	*	*clefC3	*	*	*clefC1	*	*
*k[b-]	*	*	*k[b-]	*	*	*k[b-]	*	*	*k[b-]	*	*
*F:	*	*	*F:	*	*	*F:	*	*	*F:	*	*
*M2/2	*	*	*M2/2	*	*	*M2/2	*	*	*M2/2	*	*
*met(c|)	*	*	*met(c|)	*	*	*met(c|)	*	*	*met(c|)	*	*
=1	=1	=1	=1	=1	=1	=1	=1	=1	=1	=1	=1
*	*	*	*2\right	*	*	*	*	*	*2\right	*	*
1F	Chri-	.	2.c\	Chri-	.	1f	Chri-	.	2.a\	Chri-	.
.	.	.	4d\	.	.	.	.	.	4b-\	-stus,	.
=2	=2	=2	=2	=2	=2	=2	=2	=2	=2	=2	=2
1F	-stus	.	1c	-stus,	.	1f	-stus,	.	1a	Chri-	.
=3	=3	=3	=3	=3	=3	=3	=3	=3	=3	=3	=3
1F	Chri-	.	2.A\	Chri-	.	1f	Chri-	.	2.cc\	.	.
.	.	.	4B-\	.	.	.	.	.	4dd\	.	.
=4	=4	=4	=4	=4	=4	=4	=4	=4	=4	=4	=4
1F	-stus	.	1A	-stus	.	1f	-stus	.	1cc	-stus	.
=5	=5	=5	=5	=5	=5	=5	=5	=5	=5	=5	=5
*2\right	*	*	*	*	*	*2\right	*	*	*	*	*
2F\	fa-	.	2.A\	fa-	.	2.f\	fa-	.	2.cc\	fa-	.
2F\	-ctus	.	.	.	.	.	.	.	.	.	.
.	.	.	4A\	-ctus	.	4f\	-ctus	.	4cc#X\	-ctus	.
=6	=6	=6	=6	=6	=6	=6	=6	=6	=6	=6	=6
2F\	est	.	2B-\	est	.	2f\	est	.	2dd\	est	.
2F\	pro	.	2B-\	pro	.	2f\	pro	.	2dd\	pro	.
!LO:LB:g=original	!	!	!LO:LB:g=original	!	!	!LO:LB:g=original	!	!	!LO:LB:g=original	!	!
=7	=7	=7	=7	=7	=7	=7	=7	=7	=7	=7	=7
!	!	!LO:DY:b:t=f	!	!	!	!	!	!	!	!	!
2F\	no-	f	2.d\	no-	.	2f\	no-	.	2.ff\	no-	.
4F\	-bis	.	.	.	.	4f\	-bis	.	.	.	.
4F\	o-	.	8c\	-bis	.	4f\	o-	.	8ee\	-bis	.
.	.	.	8B-\	o-	.	.	.	.	8dd\	o-	.
=8	=8	=8	=8	=8	=8	=8	=8	=8	=8	=8	=8
4.F\	-be-	.	4.A\	-be-	.	4.f\	-be-	.	4.cc\	-be-	.
8F\	-di-	.	8B-\	-di-	.	8f\	-di-	.	8dd\	-di-	.
2F\	-ens	.	2A\	-ens	.	2f\	-ens	.	2cc\	-ens,	.
=9	=9	=9	=9	=9	=9	=9	=9	=9	=9	=9	=9
2F\	us-	.	2c\	us-	.	2a\	us-	.	2cc\	us-	.
4E\	-que	.	4c\	-que	.	4.g\	-que	.	8cc\L	-que	.
.	.	.	.	.	.	.	.	.	8b-\J	.	.
4F\	ad	.	4c\	ad	.	.	.	.	8b-\L	ad	.
.	.	.	.	.	.	8f\	ad	.	8a\J	.	.
=10	=10	=10	=10	=10	=10	=10	=10	=10	=10	=10	=10
2C/	mor-	.	2c\	mor-	.	4.e\	mor-	.	4.g\	mor-	.
.	.	.	.	.	.	8f\	.	.	8a\	.	.
2C;/	-tem,	.	2c;\	-tem,	.	2e;\	-tem	.	2g;\	-tem	.
!	!	!	!	!	!	!LO:LB:g=original	!	!	!LO:LB:g=original	!	!
=11|	=11|	=11|	=11|	=11|	=11|	=11|	=11|	=11|	=11|	=11|	=11|
!	!	!LO:DY:a:t=p.	!	!	!LO:DY:a:t=p.	!	!	!	!	!	!
2C/	mor-	p	1G	mor-	p	1c	mor-	.	1e	mot-	.
2BB-/	.	.	.	.	.	.	.	.	.	.	.
!LO:LB:g=original	!	!	!LO:LB:g=original	!	!	!	!	!	!	!	!
=12	=12	=12	=12	=12	=12	=12	=12	=12	=12	=12	=12
1AA	-tem	.	1A	-tem,	.	1c	-tem,	.	1f	-tem	.
=13	=13	=13	=13	=13	=13	=13	=13	=13	=13	=13	=13
2BB-/	mor-	.	1G	mor-	.	1d	mor-	.	1f	mor-	.
2BBn/	.	.	.	.	.	.	.	.	.	.	.
=14	=14	=14	=14	=14	=14	=14	=14	=14	=14	=14	=14
1C	.	.	1G	.	.	1c	-tem	.	2f/	.	.
.	.	.	.	.	.	.	.	.	2e/	.	.
=15	=15	=15	=15	=15	=15	=15	=15	=15	=15	=15	=15
2F\	-tem,	.	2A\	-tem,	.	2c\	us-	.	2f/	-tem.	.
2r	.	.	2r	.	.	4f\	.	.	2r	.	.
.	.	.	.	.	.	4a\	.	.	.	.	.
=16	=16	=16	=16	=16	=16	=16	=16	=16	=16	=16	=16
!LO:TX:a:t=1	!	!	!LO:TX:a:t=1	!	!	!	!	!	!LO:TX:a:t=2.	!	!
1r	.	.	1r	.	.	4g\	-que	.	0r	.	.
.	.	.	.	.	.	4f\	.	.	.	.	.
.	.	.	.	.	.	4e\	ad	.	.	.	.
.	.	.	.	.	.	4d\	.	.	.	.	.
!	!	!	!	!	!	!LO:LB:g=original	!	!	!	!	!
=17	=17	=17	=17	=17	=17	=17	=17	=17	=17	=17	=17
2r	.	.	2r	.	.	1c	mor-	.	.	.	.
4F\	us-	.	4A\	us-	.	.	.	.	.	.	.
4A\	.	.	4c\	.	.	.	.	.	.	.	.
=18	=18	=18	=18	=18	=18	=18	=18	=18	=18	=18	=18
4G\	-que	.	4B-\	-que	.	1c	.	.	4r	.	.
4F\	.	.	4A\	.	.	.	.	.	4c/	us	.
4E\	ad	.	4G/	ad	.	.	.	.	4c/	que	.
4D\	.	.	4F/	.	.	.	.	.	4f/	ad	.
!LO:LB:g=original	!	!	!LO:LB:g=original	!	!	!	!	!	!LO:LB:g=original	!	!
=19	=19	=19	=19	=19	=19	=19	=19	=19	=19	=19	=19
1C	mor-	.	2G/	mor-	.	1c	.	.	2e/	mor-	.
.	.	.	2A/	.	.	.	.	.	2f/	.	.
=20	=20	=20	=20	=20	=20	=20	=20	=20	=20	=20	=20
1C	.	.	2.G/	.	.	1c	.	.	4f/	.	.
.	.	.	.	.	.	.	.	.	8e/L	.	.
.	.	.	.	.	.	.	.	.	8d/J	.	.
.	.	.	.	.	.	.	.	.	2e/	.	.
.	.	.	8c\L	.	.	.	.	.	.	.	.
.	.	.	8B-\J	.	.	.	.	.	.	.	.
=21	=21	=21	=21	=21	=21	=21	=21	=21	=21	=21	=21
1F;	-tem.	.	1A;	-tem.	.	1c;	-tem:	.	1f;	-tem,	.
=22||	=22||	=22||	=22||	=22||	=22||	=22||	=22||	=22||	=22||	=22||	=22||
!	!	!	!	!	!	!LO:TX:a:t=2.	!	!	!	!	!
2F\	Mor-	.	2.A-X\	Mor-	.	0r	.	.	2.cc\	mor-	.
2F\	-tem	.	.	.	.	.	.	.	.	.	.
.	.	.	4B-\	-tem	.	.	.	.	4dd-X\	-tem	.
=23	=23	=23	=23	=23	=23	=23	=23	=23	=23	=23	=23
2F\	au-	.	2A-X\	au-	.	.	.	.	2cc\	au-	.
2F\	-tem	.	2A-\	-tem	.	.	.	.	2cc\	-tem	.
=24	=24	=24	=24	=24	=24	=24	=24	=24	=24	=24	=24
!	!	!	!	!	!	!	!	!	!	!	!LO:DY:b:t=f
1D-X	cru-	.	1F	cru-	f	2.a-X\	cru-	.	1bn	cru-	f
.	.	.	.	.	.	4f\	.	.	.	.	.
!	!	!	!	!	!	!	!	!	!LO:LB:g=original	!	!
=25	=25	=25	=25	=25	=25	=25	=25	=25	=25	=25	=25
1C	-cis,	.	1G	-cis,	.	1en	-cis	.	1cc	-cis	.
!	!	!	!LO:LB:g=original	!	!	!LO:LB:g=original	!	!	!	!	!
=26	=26	=26	=26	=26	=26	=26	=26	=26	=26	=26	=26
2.C/	mor-	.	2.c\	mor-	.	2.e\	mor-	.	2.g\	mor-	.
4D-X/	-tem	.	4Bn\	-tem	.	4f\	-tem	.	4g\	-tem	.
!LO:LB:g=original	!	!	!	!	!	!	!	!	!	!	!
=27	=27	=27	=27	=27	=27	=27	=27	=27	=27	=27	=27
2C/	au-	.	2c\	au-	.	1e	au-	.	1g	au-	.
2BB-/	.	.	2d-X\	.	.	.	.	.	.	.	.
=28	=28	=28	=28	=28	=28	=28	=28	=28	=28	=28	=28
1AA-X	-tem	.	1c	-tem	.	1f	-tem	.	1cc	-tem	.
=29	=29	=29	=29	=29	=29	=29	=29	=29	=29	=29	=29
2BB-/	cru-	.	2d-X\	cru-	.	1f	cru-	.	1b-	cru-	.
2D-X/	.	.	2B-\	.	.	.	.	.	.	.	.
=30	=30	=30	=30	=30	=30	=30	=30	=30	=30	=30	=30
1C	.	.	2.c\	.	.	2f\	.	.	2a-X\	.	.
.	.	.	.	.	.	2e\	.	.	2g\	.	.
.	.	.	4B-\	.	.	.	.	.	.	.	.
=31	=31	=31	=31	=31	=31	=31	=31	=31	=31	=31	=31
1F;	-cis.	.	1An;	-cis.	.	1f;	-cis,	.	1f;	-cis.	.
!	!	!	!	!	!	!	!	!	!LO:LB:g=original	!	!
=32||	=32||	=32||	=32||	=32||	=32||	=32||	=32||	=32||	=32||	=32||	=32||
!LO:TX:a:t=4	!	!	!LO:TX:a:t=1	!	!	!	!	!	!	!	!
00r	.	.	1r	.	.	4f\	prop-	.	4an\	prop-	.
.	.	.	.	.	.	4e\	.	.	4g\	.	.
.	.	.	.	.	.	4g\	-ter	.	4b-\	-ter	.
.	.	.	.	.	.	4f\	.	.	4a\	.	.
!	!	!	!LO:LB:g=original	!	!	!LO:LB:g=original	!	!	!	!	!
=33	=33	=33	=33	=33	=33	=33	=33	=33	=33	=33	=33
.	.	.	2r	.	.	2.a\	quod	.	2.cc\	quod	.
.	.	.	4r	.	.	.	.	.	.	.	.
.	.	.	4A\	et	.	4f\	et	.	4ff\	et	.
=34	=34	=34	=34	=34	=34	=34	=34	=34	=34	=34	=34
.	.	.	2A\	De-	.	1f	De-	.	2cc\	De-	.
.	.	.	2B-\	.	.	.	.	.	2dd\	.	.
=35	=35	=35	=35	=35	=35	=35	=35	=35	=35	=35	=35
.	.	.	1A	-us	.	1f	-us	.	1cc	-us,	.
=36	=36	=36	=36	=36	=36	=36	=36	=36	=36	=36	=36
4F\	e-	.	4A\	e-	.	4f\	e-	.	2cc\	e-	.
4E\	.	.	4G\	.	.	4c\	.	.	.	.	.
4G\	-xal-	.	4B-\	-xal-	.	4e\	-xal-	.	2cc\	-xul-	.
4F\	.	.	4A\	.	.	4f\	.	.	.	.	.
!LO:LB:g=original	!	!	!	!	!	!	!	!	!LO:LB:g=original	!	!
=37	=37	=37	=37	=37	=37	=37	=37	=37	=37	=37	=37
2A\	-ta-	.	2c\	-ta-	.	2f\	-ta-	.	2cc\	-ta-	.
2A\	-vit	.	2c\	-vit	.	2f\	-vit	.	2cc\	-vit	.
=38	=38	=38	=38	=38	=38	=38	=38	=38	=38	=38	=38
!	!	!LO:DY:b:t=f	!	!	!LO:DY:b:t=f	!	!	!	!	!	!
1d	il-	f	1f	il-	f	1f	el-	.	2a\	il-	f
.	.	.	.	.	.	.	.	.	2bn\	.	.
!	!	!	!	!	!	!LO:LB:g=original	!	!	!	!	!
=39	=39	=39	=39	=39	=39	=39	=39	=39	=39	=39	=39
1c	-lum	.	1e	-lum	.	1g	-lum,	.	1cc	-lum	.
!	!	!	!LO:LB:g=original	!	!	!	!	!	!	!	!
=40	=40	=40	=40	=40	=40	=40	=40	=40	=40	=40	=40
!	!	!	!	!	!LO:DY:b:t=p	!	!	!	!	!	!LO:DY:b:t=p
1C	et	p	1d	et	p	1g	et	.	1cc	et	p
=41	=41	=41	=41	=41	=41	=41	=41	=41	=41	=41	=41
2D\	de-	.	4d\	de-	.	2f\	de-	.	4cc\	de-	.
.	.	.	4c\	.	.	.	.	.	4bn\	.	.
2D\	-dit	.	4c\	-dit	.	2f\	-dit	.	4b\	-dit,	.
.	.	.	4B-\	.	.	.	.	.	4a\	.	.
=42	=42	=42	=42	=42	=42	=42	=42	=42	=42	=42	=42
2.E\	il-	.	2Bn\	il-	.	2e\	il-	.	2g#X\	il-	.
.	.	.	2B\	-li	.	2e\	-li	.	2g#\	-li	.
4D\	-li	.	.	.	.	.	.	.	.	.	.
!	!	!	!	!	!	!	!	!	!LO:LB:g=original	!	!
=43	=43	=43	=43	=43	=43	=43	=43	=43	=43	=43	=43
2.C/	no-	.	2.c\	no-	.	2.e\	no-	.	2.a\	no-	.
4BBn/	.	.	4d\	.	.	4g#X\	.	.	4bn\	.	.
!LO:LB:g=original	!	!	!	!	!	!	!	!	!	!	!
=44	=44	=44	=44	=44	=44	=44	=44	=44	=44	=44	=44
1AA	-men,	.	1e	-men,	.	1a	-men	.	1cc	-men,	.
=45	=45	=45	=45	=45	=45	=45	=45	=45	=45	=45	=45
1A	quod	.	1c	quod	.	1e	quod	.	1a	quod	.
!	!	!	!	!	!	!LO:LB:g=original	!	!	!	!	!
=46	=46	=46	=46	=46	=46	=46	=46	=46	=46	=46	=46
1G	est	.	1d	est	.	1g	est	.	1b-X	est	.
!	!	!	!LO:LB:g=original	!	!	!	!	!	!	!	!
=47	=47	=47	=47	=47	=47	=47	=47	=47	=47	=47	=47
!	!	!LO:DY:b:t=f	!	!	!	!	!	!LO:DY"b"t=f	!	!	!
4c\	su-	f	4c\	su-	f	4e\	su-	f	4g\	su-	f
4c\	-per	.	4c\	-per	.	4e\	-per	.	4g\	-per	.
4c\	o-	.	4c\	o-	.	4e\	o-	.	4g\	om-	.
4B-X\	-mne	.	4c\	-mne	.	4e\	-mne	.	4g\	-ne	.
=48	=48	=48	=48	=48	=48	=48	=48	=48	=48	=48	=48
2.A\	no-	.	2.c\	no-	.	2.f\	no-	.	2.a\	no-	.
4G\	.	.	4B-\	.	.	4g\	.	.	4b-\	.	.
!	!	!	!	!	!	!	!	!	!LO:LB:g=original	!	!
=49	=49	=49	=49	=49	=49	=49	=49	=49	=49	=49	=49
2F\	-men,	.	2A\	-men	.	2a\	-men,	.	2cc\	-men,	.
2r	.	.	2r	.	.	2r	.	.	2cc\	quod	.
!LO:LB:g=original	!	!	!	!	!	!	!	!	!	!	!
=50	=50	=50	=50	=50	=50	=50	=50	=50	=50	=50	=50
2r	.	.	2r	.	.	2r	.	.	1ff	est	.
2F\	quod	.	2c\	quod	.	2a\	quod	.	.	.	.
=51	=51	=51	=51	=51	=51	=51	=51	=51	=51	=51	=51
1B-	est	.	1d	est	.	1b-	est	.	1ff	.	.
!	!	!	!	!	!	!LO:LB:g=original	!	!	!	!	!
=52	=52	=52	=52	=52	=52	=52	=52	=52	=52	=52	=52
2A\	su-	.	2c\	su-	.	2f\	su-	.	2ff\	su-	.
2B-\	-per	.	2d\	-per	.	2f\	-per	.	2ff\	-per	.
!	!	!	!LO:LB:g=original	!	!	!	!	!	!	!	!
=53	=53	=53	=53	=53	=53	=53	=53	=53	=53	=53	=53
2A\	o-	.	2c\	o-	.	2f\	o-	.	4ff\	o-	.
.	.	.	.	.	.	.	.	.	4cc\	.	.
2G\	-mne	.	2B-\	-mne	.	2g\	-mne	.	4dd\	-mne	.
.	.	.	.	.	.	.	.	.	4ee\	.	.
!	!	!	!	!	!	!	!	!	!LO:LB:g=original	!	!
=54	=54	=54	=54	=54	=54	=54	=54	=54	=54	=54	=54
4F\	no-	.	4A\	no-	.	4a\	no-	.	2.ff\	no-	.
4G\	.	.	4B-\	.	.	4g\	.	.	.	.	.
4A\	.	.	4c\	.	.	2f\	.	.	.	.	.
4B-\	.	.	4d\	.	.	.	.	.	8dd\L	.	.
.	.	.	.	.	.	.	.	.	8b-\J	.	.
!LO:LB:g=original	!	!	!	!	!	!	!	!	!	!	!
=55	=55	=55	=55	=55	=55	=55	=55	=55	=55	=55	=55
4c\	.	.	1c	.	.	2e\	.	.	2g\	.	.
4B-\	.	.	.	.	.	.	.	.	.	.	.
4A\	.	.	.	.	.	2f\	.	.	2a\	.	.
4F\	.	.	.	.	.	.	.	.	.	.	.
=56	=56	=56	=56	=56	=56	=56	=56	=56	=56	=56	=56
!	!	!	!	!	!LO:DY:b:t=p.	!	!	!	!	!	!
1C	.	.	4c\	.	p	2e\	.	.	2g\	.	.
.	.	.	4B-\	.	.	.	.	.	.	.	.
.	.	.	4A\	.	.	2f\	.	.	2a\	.	.
.	.	.	4F/	.	.	.	.	.	.	.	.
=57	=57	=57	=57	=57	=57	=57	=57	=57	=57	=57	=57
1C	.	.	2.c\	.	.	2f\	.	.	1g	.	.
.	.	.	.	.	.	2e\	.	.	.	.	.
.	.	.	4B-\	.	.	.	.	.	.	.	.
=58	=58	=58	=58	=58	=58	=58	=58	=58	=58	=58	=58
!	!	!	!	!	!	!LO:TX:b:t=Seq Miserere.	!	!	!LO:TX:b:t=Seq Miserere.	!	!
1F;	-men.	.	1A;	-men.	.	1f;	-men.	.	1f;	-men.	.
==	==	==	==	==	==	==	==	==	==	==	==
*-	*-	*-	*-	*-	*-	*-	*-	*-	*-	*-	*-
!!!system-decoration: [(s1,s2,s3,s4)]
!!!ENC: Anastazja Marusiak
!!!END: 2023-11-22
!!!ENC: Leszek Kubiak
!!!END: 2024-10-10
